svg/m/NR.svg

<svg width="20" height="15" viewBox="0 0 20 15" fill="none" xmlns="http://www.w3.org/2000/svg">
<mask id="mask0" mask-type="alpha" maskUnits="userSpaceOnUse" x="0" y="0" width="20" height="15">
<rect width="20" height="15" fill="white"/>
</mask>
<g mask="url(#mask0)">
<path fill-rule="evenodd" clip-rule="evenodd" d="M0 0V15H20V0H0Z" fill="#2E42A5"/>
<mask id="mask1" mask-type="alpha" maskUnits="userSpaceOnUse" x="0" y="0" width="20" height="15">
<path fill-rule="evenodd" clip-rule="evenodd" d="M0 0V15H20V0H0Z" fill="white"/>
</mask>
<g mask="url(#mask1)">
<path fill-rule="evenodd" clip-rule="evenodd" d="M0 5V7.5H20V5H0Z" fill="#FECA00"/>
<path fill-rule="evenodd" clip-rule="evenodd" d="M5.51852 12.2373L4.55284 13.4906L4.50826 11.909L2.99034 12.3553L3.88389 11.0496L2.39352 10.5185L3.88389 9.9874L2.99034 8.68169L4.50826 9.12802L4.55284 7.54647L5.51852 8.79977L6.4842 7.54647L6.52877 9.12802L8.0467 8.68169L7.15315 9.9874L8.64352 10.5185L7.15315 11.0496L8.0467 12.3553L6.52877 11.909L6.4842 13.4906L5.51852 12.2373Z" fill="#F7FCFF"/>
</g>
</g>
</svg>

<svg width="20" height="15" fill="none" xmlns="http://www.w3.org/2000/svg">
  <mask id="a" maskUnits="userSpaceOnUse" x="0" y="0" width="20" height="15">
    <path fill="#fff" d="M0 0h20v15H0z"/>
  </mask>
  <g mask="url(#a)">
    <path fill-rule="evenodd" clip-rule="evenodd" d="M0 0v15h20V0H0z" fill="#2E42A5"/>
    <mask id="b" maskUnits="userSpaceOnUse" x="0" y="0" width="20" height="15">
      <path fill-rule="evenodd" clip-rule="evenodd" d="M0 0v15h20V0H0z" fill="#fff"/>
    </mask>
    <g mask="url(#b)" fill-rule="evenodd" clip-rule="evenodd">
      <path d="M0 5v2.5h20V5H0z" fill="#FECA00"/>
      <path d="M5.519 12.237l-.966 1.254-.045-1.582-1.518.446.894-1.305-1.49-.532 1.49-.53-.894-1.306 1.518.446.045-1.582.966 1.254.965-1.254.045 1.582 1.518-.446-.894 1.305 1.49.531-1.49.532.894 1.305-1.518-.446-.045 1.582-.965-1.254z" fill="#F7FCFF"/>
    </g>
  </g>
</svg>
